src/assets/image/svg/update.svg

<svg height="12" viewBox="0 0 26 12" width="26" xmlns="http://www.w3.org/2000/svg"><path d="m20.9130435 2.05536672c-1.8493913 0-4.932087 2.18671436-8.195087 4.50215648-2.86508693 2.03312502-6.11282607 4.3375175-7.63099998 4.3375175-2.18117391 0-3.95652174-1.73533846-3.95652174-3.86735734s1.77534783-3.86735739 3.95652174-3.86735739c.38208696 0 .89926087.14198726 1.51930435.40220517l-1.42208696 2.54195876c-.10626087.18894803-.08930434.42098948.04182609.5939156.1073913.14253974.27695652.22320177.45386957.22320177.03786956 0 .07743478-.00386736.11586956-.01160207l5.05869567-1.03368938c.1605217-.03314878.299-.13204264.3786956-.27292494.0796957-.1408823.0926957-.30828363.0356087-.45855809l-1.8047391-4.78336861c-.07686957-.2033125-.26791304-.34419481-.48891304-.35966424-.21704348-.01767934-.43126087.09613146-.53695653.28618445l-1.28926086 2.304945c-.81786957-.35192952-1.51139131-.53756267-2.06191305-.53756267-2.80517391 0-5.08695652 2.23036025-5.08695652 4.97231664s2.28178261 4.97231664 5.08695652 4.97231664c1.885 0 4.99878258-2.20936603 8.29513048-4.54801229 2.8345652-2.01157832 6.0483913-4.29166174 7.5309565-4.29166174 2.1811739 0 3.9565217 1.73533851 3.9565217 3.86735739s-1.7753478 3.86735734-3.9565217 3.86735734c-.8953044 0-2.522-.7519247-4.5805218-2.11765436-.2577391-.17237365-.6093043-.10497113-.7850869.14695958-.1757826.25248319-.1079565.59612551.1503478.7673942 2.3083478 1.53147348 4.0633478 2.30825988 5.2152609 2.30825988 2.8051739 0 5.0869565-2.23036025 5.0869565-4.97231664s-2.2817826-4.97231664-5.0869565-4.97231664z" fill="#f04037"/></svg>

<?xml version="1.0" encoding="UTF-8"?>
<svg width="26px" height="12px" viewBox="0 0 26 12" version="1.1" xmlns="http://www.w3.org/2000/svg" xmlns:xlink="http://www.w3.org/1999/xlink">
    <!-- Generator: Sketch 59 (86127) - https://sketch.com -->
    <title>loop</title>
    <desc>Created with Sketch.</desc>
    <g id="Landing-Pages" stroke="none" stroke-width="1" fill="none" fill-rule="evenodd">
        <g id="Landing-2" transform="translate(-656.000000, -2980.000000)" fill="#F04037" fill-rule="nonzero">
            <g id="Content-2" transform="translate(0.000000, 2432.000000)">
                <g id="Content" transform="translate(247.000000, 86.000000)">
                    <g id="List" transform="translate(0.000000, 200.000000)">
                        <g id="1-copy-12" transform="translate(379.000000, 228.000000)">
                            <g id="Icon" transform="translate(15.000000, 12.000000)">
                                <g id="loop" transform="translate(15.000000, 22.000000)">
                                    <path d="M20.9130435,2.05536672 C19.0636522,2.05536672 15.9809565,4.24208108 12.7179565,6.5575232 C9.85286957,8.59064822 6.60513043,10.8950407 5.08695652,10.8950407 C2.90578261,10.8950407 1.13043478,9.15970224 1.13043478,7.02768336 C1.13043478,4.89566448 2.90578261,3.16032597 5.08695652,3.16032597 C5.46904348,3.16032597 5.98621739,3.30231323 6.60626087,3.56253114 L5.18417391,6.1044899 C5.07791304,6.29343793 5.09486957,6.52547938 5.226,6.6984055 C5.3333913,6.84094524 5.50295652,6.92160727 5.67986957,6.92160727 C5.71773913,6.92160727 5.75730435,6.91773991 5.79573913,6.9100052 L10.8544348,5.87631582 C11.0149565,5.84316704 11.1534348,5.74427318 11.2331304,5.60339088 C11.3128261,5.46250858 11.3258261,5.29510725 11.2687391,5.14483279 L9.464,0.36146418 C9.38713043,0.158151678 9.19608696,0.0172693729 8.97508696,0.00179994333 C8.75804348,-0.0158794047 8.54382609,0.0979313984 8.43813043,0.28798439 L7.14886957,2.59292939 C6.331,2.24099987 5.63747826,2.05536672 5.08695652,2.05536672 C2.28178261,2.05536672 0,4.28572697 0,7.02768336 C0,9.76963975 2.28178261,12 5.08695652,12 C6.97195652,12 10.0857391,9.79063397 13.382087,7.45198771 C16.2166522,5.44040939 19.4304783,3.16032597 20.9130435,3.16032597 C23.0942174,3.16032597 24.8695652,4.89566448 24.8695652,7.02768336 C24.8695652,9.15970224 23.0942174,10.8950407 20.9130435,10.8950407 C20.0177391,10.8950407 18.3910435,10.143116 16.3325217,8.77738634 C16.0747826,8.60501269 15.7232174,8.67241521 15.5474348,8.92434592 C15.3716522,9.17682911 15.4394783,9.52047143 15.6977826,9.69174012 C18.0061304,11.2232136 19.7611304,12 20.9130435,12 C23.7182174,12 26,9.76963975 26,7.02768336 C26,4.28572697 23.7182174,2.05536672 20.9130435,2.05536672 Z" id="Path"></path>
                                </g>
                            </g>
                        </g>
                    </g>
                </g>
            </g>
        </g>
    </g>
</svg>
